src/assets/icons/typescript.svg

<svg xmlns="http://www.w3.org/2000/svg" width="100%" height="100%" viewBox="0 0 731 731" fill="none"><path fill="#444" d="M296.325 161.572l271.942 133.172-134.29 274.225-271.942-133.172z"/><g fill="#3178c6"><path d="M531.593 267.337L315.079 160.095c-14.512-7.188-32.103-1.251-39.291 13.261L168.546 389.87c-7.188 14.512-1.251 32.103 13.261 39.291l216.514 107.241c14.512 7.188 32.103 1.251 39.291-13.261l107.242-216.514c7.188-14.511 1.25-32.102-13.261-39.29z"/><path d="M531.594 267.333L315.081 160.092c-14.512-7.188-26.981-21.472-34.169-6.961L168.548 389.867c-7.188 14.511-25.509 20.499-10.997 27.687l264.423 131.438c14.512 7.187 8.452-11.342 15.64-25.854L557.449 286.59c7.187-14.511-11.343-12.069-25.855-19.257z"/></g><path fill-rule="evenodd" d="M349.31 443.69l-13.031 26.308c3.191 4.31 7.435 8.46 12.732 12.448s11.179 7.585 17.649 10.79c6.306 3.123 12.594 5.487 18.867 7.092s12.232 2.083 17.88 1.434a33.89 33.89 0 0 0 15.532-5.821c4.708-3.231 8.69-8.135 11.948-14.712 2.362-4.769 3.719-9.3 4.071-13.596s-.122-8.507-1.424-12.633-3.282-8.23-5.938-12.31-5.854-8.274-9.592-12.583c-2.748-3.136-5.161-6.054-7.238-8.755s-3.728-5.225-4.955-7.573-1.974-4.561-2.242-6.639.087-4.104 1.064-6.077c.896-1.809 2.17-3.208 3.821-4.199s3.585-1.586 5.801-1.786 4.699.024 7.452.671 5.636 1.717 8.652 3.211c2.193 1.086 4.428 2.398 6.705 3.935a61.39 61.39 0 0 1 6.608 5.167 57.19 57.19 0 0 1 5.914 6.155c1.814 2.195 3.369 4.467 4.664 6.815l12.176-24.582c-3.243-3.517-7.052-6.82-11.428-9.909s-9.636-6.155-15.776-9.196c-6.252-3.096-12.506-5.358-18.763-6.785s-12.217-1.769-17.879-1.024-10.817 2.713-15.47 5.904-8.499 7.853-11.54 13.992c-3.882 7.837-4.932 15.644-3.15 23.421s6.327 15.863 13.639 24.263a309.96 309.96 0 0 1 7.958 9.367c2.419 2.974 4.387 5.791 5.902 8.452s2.483 5.223 2.904 7.684.06 4.841-1.081 7.144c-.841 1.699-2.033 3.07-3.575 4.116s-3.414 1.687-5.615 1.928-4.699.044-7.493-.589-5.862-1.778-9.207-3.434c-5.702-2.825-10.854-6.622-15.456-11.393s-8.298-10.337-11.086-16.701zm-12.122-86.725l33.749 16.716 10.694-21.589-94.068-46.593-10.694 21.589 33.584 16.635-47.613 96.126 26.736 13.243 47.612-96.127z" fill="#fff"/><path transform="rotate(26.35 288.71 148.413)" stroke="#444" stroke-width="11" d="M288.71 148.413h300.547v295.911H288.71z"/></svg>

<svg width="100%" height="100%" viewBox="0 0 731 731" fill="none" xmlns="http://www.w3.org/2000/svg">
<rect x="296.325" y="161.572" width="302.799" height="305.341" transform="rotate(26.0913 296.325 161.572)" fill="#444444"/>
<path d="M531.593 267.337L315.079 160.095C300.567 152.907 282.976 158.844 275.788 173.356L168.546 389.87C161.358 404.382 167.295 421.973 181.807 429.161L398.321 536.402C412.833 543.59 430.424 537.653 437.612 523.141L544.854 306.627C552.042 292.116 546.104 274.525 531.593 267.337Z" fill="#3178C6"/>
<path d="M531.594 267.333L315.081 160.092C300.569 152.904 288.1 138.62 280.912 153.131L168.548 389.867C161.36 404.378 143.039 410.366 157.551 417.554L421.974 548.992C436.486 556.179 430.426 537.65 437.614 523.138L557.449 286.59C564.636 272.079 546.106 274.521 531.594 267.333Z" fill="#3178C6"/>
<path fill-rule="evenodd" clip-rule="evenodd" d="M349.31 443.69L336.279 469.998C339.47 474.308 343.714 478.458 349.011 482.446C354.307 486.435 360.19 490.031 366.66 493.236C372.966 496.359 379.254 498.723 385.527 500.328C391.799 501.934 397.759 502.411 403.407 501.762C409.054 501.113 414.232 499.172 418.939 495.941C423.647 492.71 427.629 487.806 430.887 481.229C433.249 476.46 434.606 471.929 434.958 467.633C435.311 463.337 434.836 459.126 433.534 455C432.232 450.874 430.252 446.77 427.596 442.69C424.94 438.61 421.742 434.416 418.004 430.107C415.256 426.971 412.843 424.053 410.766 421.352C408.69 418.651 407.038 416.127 405.811 413.779C404.585 411.431 403.837 409.218 403.569 407.14C403.302 405.061 403.656 403.036 404.633 401.063C405.529 399.254 406.803 397.855 408.454 396.864C410.106 395.873 412.039 395.278 414.255 395.078C416.47 394.879 418.954 395.102 421.707 395.749C424.459 396.396 427.343 397.466 430.359 398.96C432.552 400.046 434.787 401.358 437.064 402.895C439.341 404.433 441.544 406.155 443.672 408.062C445.8 409.97 447.771 412.021 449.586 414.217C451.4 416.412 452.955 418.684 454.25 421.032L466.426 396.45C463.183 392.933 459.374 389.63 454.998 386.541C450.621 383.452 445.362 380.386 439.222 377.345C432.97 374.249 426.716 371.987 420.459 370.56C414.201 369.132 408.242 368.791 402.58 369.536C396.919 370.282 391.763 372.249 387.11 375.44C382.457 378.629 378.611 383.293 375.57 389.432C371.688 397.269 370.638 405.076 372.42 412.853C374.201 420.629 378.747 428.716 386.059 437.116C388.945 440.388 391.598 443.51 394.017 446.483C396.436 449.457 398.404 452.274 399.919 454.935C401.434 457.597 402.402 460.158 402.823 462.619C403.243 465.079 402.883 467.46 401.742 469.763C400.901 471.462 399.709 472.833 398.167 473.879C396.625 474.924 394.753 475.566 392.552 475.807C390.35 476.047 387.853 475.851 385.059 475.218C382.265 474.585 379.197 473.44 375.852 471.784C370.15 468.959 364.998 465.162 360.396 460.391C355.794 455.621 352.098 450.054 349.31 443.69ZM337.188 356.965L370.937 373.681L381.631 352.092L287.563 305.499L276.869 327.088L310.453 343.723L262.84 439.849L289.576 453.092L337.188 356.965Z" fill="white"/>
<rect x="288.71" y="148.413" width="300.547" height="295.911" transform="rotate(26.3498 288.71 148.413)" stroke="#444444" stroke-width="11"/>
</svg>
